X: 89
T: Notus in Judea deus
N: Derived from Mar2078-Notus_in_Judea_deus.krn
C: Johannes Martini
%%abc-version 2.0
%%abcx-abcm2ps-target-version 5.9.1 (29 Sep 2008)
%%abc-creator hum2abc beta
%%abcx-conversion-date 2019/02/17 07:19:42
%%abc-edited-by Jesse Rodin
%%abc-edited-by Chris Gage 08-07-2014
%%abcx-initial-encoding-date 2014/10/09/
%%humdrum-veritas 1278079013
%%humdrum-veritas-data 1777945999
%%linebreak <none>
%%barnumbers 0
L: 1/4
M: 4/2
Q: 1/2=120
V: 1 clef=treble
V: 2 clef=treble
V: 3 clef=treble-8
K: C
[V:1] c4c2c2 | 
[V:2] G4G2G2 | 
[V:3] c4e2e2 | 
[V:1] c4B4 | 
[V:2] G4F4 | 
[V:3] e4d4 | 
[V:1] A2G2A2B2- | 
[V:2] E2D2E2F2- | 
[V:3] c2B2c2d2- | 
[V:1] B2A4^G2 | 
[V:2] F2E4D2 | 
[V:3] dcBAB4 | 
[V:1] A8 ||  
[V:2] E8 ||  
[V:3] A8 ||  
[V:1] c4c2c2 | 
[V:2] C4E2E2 | 
[V:3] c4A2A2 | 
[V:1] c4B4 | 
[V:2] F4G4 | 
[V:3] A4G4 | 
[V:1] A4G2A2 | 
[V:2] F4E2F2 | 
[V:3] A4c2A2 | 
[V:1] B2c4B2 | 
[V:2] G2E2D4 | 
[V:3] G2c2G4 | 
[V:1] c4z4 | 
[V:2] C4z4 | 
[V:3] C4z4 | 
[V:1] c4c2c2 | 
[V:2] E4F2F2 | 
[V:3] c4A2A2 | 
[V:1] B2B2c4 | 
[V:2] G2G2C4 | 
[V:3] G2G2A4 | 
[V:1] B4A3G | 
[V:2] D4C3B, | 
[V:3] G4A2F2- | 
[V:1] A2B4A2- | 
[V:2] C2D4C2 | 
[V:3] FED2G2A2 | 
[V:1] A2^G2A4 ||  
[V:2] B,4A,4 ||  
[V:3] E4A4 ||  
[V:1] c4c4 | 
[V:2] G4G4 | 
[V:3] c4e4 | 
[V:1] B4A4 | 
[V:2] F4E4 | 
[V:3] d4c4 | 
[V:1] G2A2B2c2- | 
[V:2] D2E2F2G2- | 
[V:3] B2c2d2e2 | 
[V:1] c2B2c4 | 
[V:2] G2F2G4 | 
[V:3] d4c4 | 
[V:1] z4c4 | 
[V:2] z4G4 | 
[V:3] z4c4 | 
[V:1] c4B4 | 
[V:2] G4F4 | 
[V:3] c4d4 | 
[V:1] c4B2A2 | 
[V:2] G4F2E2 | 
[V:3] e4d2c2 | 
[V:1] B2c4BA | 
[V:2] F2G4FE | 
[V:3] d2e4dc | 
[V:1] G2A4^G2 | 
[V:2] D2E4D2 | 
[V:3] B2A2B4 | 
[V:1] A8 ||  
[V:2] E8 ||  
[V:3] A8 ||  
[V:1] c4c2c2 | 
[V:2] C4E2E2 | 
[V:3] c4A2A2 | 
[V:1] c4B4 | 
[V:2] F4G4 | 
[V:3] A4G4 | 
[V:1] B2B2B2B2 | 
[V:2] G2G2G2G2 | 
[V:3] G2G2G2G2 | 
[V:1] c4B4 | 
[V:2] C4D4 | 
[V:3] A4G4 | 
[V:1] A4G2A2 | 
[V:2] F4E2F2 | 
[V:3] F4c2A2 | 
[V:1] B2c4BA | 
[V:2] G2E4DC | 
[V:3] G2c2A4 | 
[V:1] B4c4 | 
[V:2] D4C4 | 
[V:3] G4C4 | 
[V:1] z4c4 | 
[V:2] z4E4 | 
[V:3] z4c4 | 
[V:1] c2c2c4 | 
[V:2] E2E2E4 | 
[V:3] A2A2A2c2 | 
[V:1] B4c4 | 
[V:2] D4C4 | 
[V:3] G4A4 | 
[V:1] c4B4 | 
[V:2] E4D4 | 
[V:3] E4G4 | 
[V:1] A3GA2B2- | 
[V:2] C3B,C2D2- | 
[V:3] A2F4D2 | 
[V:1] B2A4^G2 | 
[V:2] D2C2B,4 | 
[V:3] G2A2E4 | 
[V:1] A8 ||  
[V:2] A,8 ||  
[V:3] A8 ||  
[V:1] c4c2c2 | 
[V:2] G4G2G2 | 
[V:3] c4c2c2 | 
[V:1] c4B2A2 | 
[V:2] G4F2E2 | 
[V:3] e4d2e2- | 
[V:1] G2c4B2 | 
[V:2] D2G4F2 | 
[V:3] e2dcd4 | 
[V:1] c4z4 | 
[V:2] G4z4 | 
[V:3] c4z4 | 
[V:1] c2c2c2c2 | 
[V:2] G2G2G2G2 | 
[V:3] c4e2e2 | 
[V:1] c2c2c4 | 
[V:2] G2G2G4 | 
[V:3] e2e2c2e2- | 
[V:1] B2A2B4 | 
[V:2] F2E2F4 | 
[V:3] e2dcd4 | 
[V:1] c4c2c2 | 
[V:2] G4G2G2 | 
[V:3] c4c2c2 | 
[V:1] c4c4 | 
[V:2] G4G4 | 
[V:3] e2e2e4 | 
[V:1] c2B2A2B2- | 
[V:2] G2F2E2F2- | 
[V:3] e2d2c2d2- | 
[V:1] B2A4^G2 | 
[V:2] F2E4D2 | 
[V:3] d2c2B4 | 
[V:1] A8 ||  
[V:2] E8 ||  
[V:3] A8 ||  
[V:1] c4c4 | 
[V:2] C4E4 | 
[V:3] c4A4 | 
[V:1] c2c2c2c2 | 
[V:2] E2E2E2E2 | 
[V:3] A2A2A2A2 | 
[V:1] c4B2A2 | 
[V:2] F4G2F2 | 
[V:3] A4G2A2 | 
[V:1] G2c4B2 | 
[V:2] E2C2D4 | 
[V:3] c2A2G4 | 
[V:1] c4z4 | 
[V:2] C4z4 | 
[V:3] C4z4 | 
[V:1] c2c2c2c2 | 
[V:2] E2E2E2E2 | 
[V:3] c2c2A2A2 | 
[V:1] c4B2A2 | 
[V:2] C4D2C2 | 
[V:3] A4G2A2 | 
[V:1] B2c4BA | 
[V:2] D2E4DC | 
[V:3] G2E4F2 | 
[V:1] G2A4^G2 | 
[V:2] B,2A,2B,4 | 
[V:3] G2F2E4 | 
[V:1] A8 ||  
[V:2] A,8 ||  
[V:3] A8 ||  
[V:1] c4c2c2 | 
[V:2] G4G2G2 | 
[V:3] c4e2e2 | 
[V:1] c2c2c4 | 
[V:2] G2G2G4 | 
[V:3] e2e2e4 | 
[V:1] B4A4 | 
[V:2] F4E4 | 
[V:3] d4c4 | 
[V:1] G2A2B2c2- | 
[V:2] D2E2F2G2- | 
[V:3] B2c2d2e2 | 
[V:1] c2B2c4 | 
[V:2] G2F2G4 | 
[V:3] d4c4 | 
[V:1] z4c4 | 
[V:2] z4G4 | 
[V:3] z4e4 | 
[V:1] c4B4 | 
[V:2] G4F4 | 
[V:3] e4d4 | 
[V:1] c2d3cBA | 
[V:2] G2A3GFE | 
[V:3] e2f3edc | 
[V:1] G2A4^G2 | 
[V:2] D2E4D2 | 
[V:3] B2A2B4 | 
[V:1] A8 ||  
[V:2] E8 ||  
[V:3] A8 ||  
[V:1] c4c4 | 
[V:2] E4E4 | 
[V:3] c4A4 | 
[V:1] c4B2B2 | 
[V:2] E4D2D2 | 
[V:3] c4G2G2 | 
[V:1] B4A2B2 | 
[V:2] D4F2G2 | 
[V:3] G4A2G2 | 
[V:1] c2d4c2- | 
[V:2] E2F4E2 | 
[V:3] A2F4C2 | 
[V:1] c2B2c4 | 
[V:2] D4C4 | 
[V:3] G4C4 | 
[V:1] z4c4 | 
[V:2] z4E4 | 
[V:3] z4c4 | 
[V:1] c4c2c2 | 
[V:2] E4E2E2 | 
[V:3] A4A2A2 | 
[V:1] c4B4 | 
[V:2] E4D4 | 
[V:3] A4D3E | 
[V:1] A3GA2B2- | 
[V:2] A,3B,C2D2- | 
[V:3] F4G2D2 | 
[V:1] B2A4^G2 | 
[V:2] D2C2B,4 | 
[V:3] G2A2E4 | 
[V:1] A8 ||  
[V:2] A,8 ||  
[V:3] A8 ||  
[V:1] c4c2c2 | 
[V:2] G4G2G2 | 
[V:3] c4e4 | 
[V:1] c2c2c4 | 
[V:2] G2G2G4 | 
[V:3] e2e2e4 | 
[V:1] B4A4 | 
[V:2] F4E4 | 
[V:3] d4c4 | 
[V:1] G2A2B2c2- | 
[V:2] D2E2F2G2- | 
[V:3] B2c2d2c2 | 
[V:1] c2B2c4 | 
[V:2] G2F2G4 | 
[V:3] d4c4 | 
[V:1] z4c4 | 
[V:2] z4G4 | 
[V:3] z4c4 | 
[V:1] c2c2c2c2 | 
[V:2] G2G2G2G2 | 
[V:3] e2e2e2e2 | 
[V:1] c4c4 | 
[V:2] G4G4 | 
[V:3] e4e4 | 
[V:1] B2A2B2c2- | 
[V:2] F2E2F2G2- | 
[V:3] d2c2d2e2- | 
[V:1] c2BAG2A2- | 
[V:2] G2FED2E2- | 
[V:3] e2dcB2A2 | 
[V:1] A2^G2A4 ||  
[V:2] E2D2E4 ||  
[V:3] B4A4 ||  
[V:1] c2c2c4 | 
[V:2] E2E2E4 | 
[V:3] c2c2A4 | 
[V:1] c2c2c2c2 | 
[V:2] F2F2F2F2 | 
[V:3] F2F2F2F2 | 
[V:1] c4B2B2 | 
[V:2] F4G2G2 | 
[V:3] A4G2G2 | 
[V:1] B4c4 | 
[V:2] G4C4 | 
[V:3] G4A4 | 
[V:1] B2A2G2c2- | 
[V:2] D2C2B,2C2 | 
[V:3] DEF2G2A2 | 
[V:1] c2B2c4 | 
[V:2] D4C4 | 
[V:3] G4A4 | 
[V:1] z4c2c2 | 
[V:2] z4E2E2 | 
[V:3] z4A2A2 | 
[V:1] c2c2c4 | 
[V:2] E2E2F4 | 
[V:3] A2A2A4 | 
[V:1] B4B2B2 | 
[V:2] G4G2G2 | 
[V:3] G4G2G2 | 
[V:1] B2B2B4 | 
[V:2] E2E2D4 | 
[V:3] G2G2G4 | 
[V:1] c2c2c4 | 
[V:2] C6C2 | 
[V:3] A2A2A4 | 
[V:1] B4A3G | 
[V:2] D4A,3B, | 
[V:3] G4F2A2- | 
[V:1] A2B4A2- | 
[V:2] C2D4C2 | 
[V:3] A2G4A2 | 
[V:1] A2^G2A4 ||  
[V:2] B,4A,4 ||  
[V:3] E4A4 ||  
[V:1] c2c2c4 | 
[V:2] G2G2G4 | 
[V:3] c4e2e2 | 
[V:1] c4c2c2 | 
[V:2] G4G2G2 | 
[V:3] e4e2e2 | 
[V:1] c4B2A2 | 
[V:2] G4F2E2 | 
[V:3] e4d2c2 | 
[V:1] G2A2B2c2- | 
[V:2] D2E2F2G2- | 
[V:3] B2c2d2c2 | 
[V:1] c2B2c4 | 
[V:2] G2F2G4 | 
[V:3] d4c4 | 
[V:1] z4c4 | 
[V:2] z4G4 | 
[V:3] z4c4 | 
[V:1] c4c4 | 
[V:2] G4G4 | 
[V:3] c4e4 | 
[V:1] c2c2c2c2 | 
[V:2] G2G2G2G2 | 
[V:3] e2e2e2e2 | 
[V:1] c4B4 | 
[V:2] G4F4 | 
[V:3] e4d4 | 
[V:1] A4G4 | 
[V:2] E4D4 | 
[V:3] c4B4 | 
[V:1] A2B4A2- | 
[V:2] E2F4E2- | 
[V:3] c2d4c2 | 
[V:1] A2^G2A4 ||  
[V:2] E2D2E4 ||  
[V:3] B4A4 ||  
[V:1] c4c2c2 | 
[V:2] E4E2E2 | 
[V:3] c4A2A2 | 
[V:1] c4c2c2 | 
[V:2] E4F2F2 | 
[V:3] A4A2A2 | 
[V:1] c4B4 | 
[V:2] F4G4 | 
[V:3] A4G4 | 
[V:1] B4A4 | 
[V:2] G4F4 | 
[V:3] G4A4 | 
[V:1] G2A2B2c2- | 
[V:2] E2F2G2E2 | 
[V:3] c2A2G2c2 | 
[V:1] c2B2c4 | 
[V:2] D4C4 | 
[V:3] G4A4 | 
[V:1] z4c4 | 
[V:2] z4E4 | 
[V:3] z4A4 | 
[V:1] c2c2c4 | 
[V:2] E2E2E4 | 
[V:3] A2A2A4 | 
[V:1] c4B4 | 
[V:2] C4D4 | 
[V:3] A4G4 | 
[V:1] A3GA2B2- | 
[V:2] C3B,C2D2- | 
[V:3] A4F2D2 | 
[V:1] B2A4^G2 | 
[V:2] D2C2B,4 | 
[V:3] G2A2E4 | 
[V:1] A8 |]  
[V:2] A,8 |]  
[V:3] A8 |]  



